rca-icon-total.svg

<svg width="24" height="24" viewBox="0 0 24 24" fill="none" xmlns="http://www.w3.org/2000/svg">
<path d="M18.2437 4.55153C18.2437 4.06757 17.8513 3.67525 17.3674 3.67525H6.53582C6.22661 3.67525 5.93146 3.90834 5.81902 4.24133C5.69252 4.59097 5.7628 4.99055 5.98768 5.25695L11.68 12L5.98768 18.743C5.7628 19.0094 5.69252 19.409 5.81902 19.7586C5.94551 20.1083 6.22661 20.3247 6.53582 20.3247H17.3674C17.8513 20.3247 18.2437 19.9324 18.2437 19.4484V19.3529C18.2437 18.869 17.8513 18.4766 17.3674 18.4766H8.4192L13.3385 12.6493C13.6477 12.283 13.6477 11.7003 13.3385 11.334L8.4192 5.50669H17.3674C17.8513 5.50669 18.2437 5.11436 18.2437 4.6304V4.55153Z" fill="currentColor"/>
<path fill-rule="evenodd" clip-rule="evenodd" d="M6.53582 3.49999H17.3674C17.9481 3.49999 18.4189 3.97078 18.4189 4.55153V4.6304C18.4189 5.21115 17.9481 5.68195 17.3674 5.68195H8.7965L13.4724 11.221C13.8367 11.6525 13.8367 12.3308 13.4724 12.7624L8.7965 18.3014H17.3674C17.9481 18.3014 18.4189 18.7722 18.4189 19.3529V19.4484C18.4189 20.0292 17.9481 20.5 17.3674 20.5H6.53582C6.13821 20.5 5.80046 20.2225 5.65421 19.8183C5.5073 19.4122 5.58677 18.9463 5.85376 18.63L11.4506 12L5.85376 5.37C5.58715 5.05418 5.50753 4.58914 5.65358 4.18347C5.78619 3.79303 6.13927 3.49999 6.53582 3.49999ZM5.81902 4.24133C5.93146 3.90834 6.22661 3.67525 6.53582 3.67525H17.3674C17.8513 3.67525 18.2437 4.06757 18.2437 4.55153V4.6304C18.2437 5.11436 17.8513 5.50669 17.3674 5.50669H8.4192L13.3385 11.334C13.6477 11.7003 13.6477 12.283 13.3385 12.6493L8.4192 18.4766H17.3674C17.8513 18.4766 18.2437 18.869 18.2437 19.3529V19.4484C18.2437 19.9324 17.8513 20.3247 17.3674 20.3247H6.53582C6.22661 20.3247 5.94551 20.1083 5.81902 19.7586C5.69252 19.409 5.7628 19.0094 5.98768 18.743L11.68 12L5.98768 5.25695C5.7628 4.99055 5.69252 4.59097 5.81902 4.24133Z" fill="currentColor"/>
<path fill-rule="evenodd" clip-rule="evenodd" d="M17.3674 18.3014C17.9481 18.3014 18.4189 18.7722 18.4189 19.3529V19.4484C18.4189 20.0292 17.9481 20.5 17.3674 20.5H6.53582C6.13821 20.5 5.80046 20.2225 5.65421 19.8183C5.5073 19.4122 5.58677 18.9463 5.85376 18.63L11.4506 12L5.85376 5.37C5.58715 5.05418 5.50753 4.58914 5.65358 4.18347C5.78619 3.79303 6.13927 3.49999 6.53582 3.49999H17.3674C17.9481 3.49999 18.4189 3.97078 18.4189 4.55153V4.6304C18.4189 5.21115 17.9481 5.68195 17.3674 5.68195H8.7965L13.4724 11.221C13.8367 11.6525 13.8367 12.3308 13.4724 12.7624L8.7965 18.3014H17.3674ZM9.22707 18.1014H17.3674C18.0586 18.1014 18.6189 18.6617 18.6189 19.3529V19.4484C18.6189 20.1397 18.0586 20.7 17.3674 20.7H6.53582C6.03687 20.7 5.63474 20.3523 5.46614 19.8863C5.29594 19.4159 5.38585 18.8742 5.70093 18.501L11.1889 12L5.70093 5.49901C5.38668 5.12675 5.29642 4.58699 5.46479 4.11742C5.62028 3.66183 6.03925 3.29999 6.53582 3.29999H17.3674C18.0586 3.29999 18.6189 3.86032 18.6189 4.55153V4.6304C18.6189 5.32161 18.0586 5.88195 17.3674 5.88195H9.22707L13.6252 11.0919C14.0524 11.598 14.0524 12.3853 13.6252 12.8914L9.22707 18.1014Z" fill="currentColor"/>
</svg>

<svg xmlns="http://www.w3.org/2000/svg" width="24" height="24" fill="currentColor" viewBox="0 0 24 24">
  <path d="M18.244 4.552a.876.876 0 0 0-.877-.877H6.536c-.31 0-.605.233-.717.566-.126.35-.056.75.169 1.016L11.68 12l-5.692 6.743a1.048 1.048 0 0 0-.169 1.016c.127.35.408.566.717.566h10.831a.876.876 0 0 0 .877-.877v-.095a.876.876 0 0 0-.877-.876H8.42l4.92-5.828a1.049 1.049 0 0 0 0-1.315L8.42 5.507h8.948a.876.876 0 0 0 .877-.877v-.078Z"/>
  <path fill-rule="evenodd" d="M6.536 3.5h10.831c.581 0 1.052.47 1.052 1.052v.078c0 .581-.47 1.052-1.052 1.052h-8.57l4.675 5.539c.365.432.365 1.11 0 1.541l-4.675 5.54h8.57c.581 0 1.052.47 1.052 1.051v.095c0 .581-.47 1.052-1.052 1.052H6.536c-.398 0-.736-.277-.882-.682a1.223 1.223 0 0 1 .2-1.188L11.45 12 5.854 5.37a1.223 1.223 0 0 1-.2-1.186c.132-.39.485-.684.882-.684Zm-.717.741c.112-.333.408-.566.717-.566h10.831c.484 0 .877.393.877.877v.078a.876.876 0 0 1-.877.877H8.42l4.92 5.827c.309.366.309.95 0 1.315l-4.92 5.828h8.948c.484 0 .877.392.877.876v.095a.876.876 0 0 1-.877.877H6.536c-.31 0-.59-.217-.717-.566a1.05 1.05 0 0 1 .169-1.016L11.68 12 5.988 5.257a1.048 1.048 0 0 1-.169-1.016Z" clip-rule="evenodd"/>
  <path fill-rule="evenodd" d="M17.367 18.301c.581 0 1.052.471 1.052 1.052v.095c0 .581-.47 1.052-1.052 1.052H6.536c-.398 0-.736-.277-.882-.682a1.223 1.223 0 0 1 .2-1.188L11.45 12 5.854 5.37a1.223 1.223 0 0 1-.2-1.186c.132-.39.485-.684.882-.684h10.831c.581 0 1.052.47 1.052 1.052v.078c0 .581-.47 1.052-1.052 1.052h-8.57l4.675 5.539c.365.432.365 1.11 0 1.541l-4.675 5.54h8.57Zm-8.14-.2h8.14c.692 0 1.252.56 1.252 1.252v.095c0 .692-.56 1.252-1.252 1.252H6.536c-.5 0-.901-.348-1.07-.814-.17-.47-.08-1.012.235-1.385L11.189 12 5.7 5.5a1.423 1.423 0 0 1-.236-1.383c.155-.455.574-.817 1.07-.817h10.832c.692 0 1.252.56 1.252 1.252v.078c0 .692-.56 1.252-1.252 1.252h-8.14l4.398 5.21a1.423 1.423 0 0 1 0 1.8l-4.398 5.21Z" clip-rule="evenodd"/>
</svg>
